!!!OTL: Xiang mei wu zhuo xin wu gan
!!!ARE: Asia, China,ˇGuangdong, Huidong
!! II, 420
!!!SCT: C1521
!!!YEM: Copyright 1995, estate of Helmut Schaffrath.
**kern
*ICvox
*Ivox
!! 3+2 metric grouping
!! Mixed meters:  5/8; 4/8
*M4/8
*k[b-]
*F:
{8d
8g
8a
8f
8g
8d
=1
8d
8e
8d
8g
8e
=2
8d
4.d}
=3
{4d
8a
8b-
=4
8a
16g
16a
8f
8d
=5
8f
8g
16a
8.g}
=6
{8r
8a
8g
8e
=7
*M5/8
16d
16e
8c
4f
16e
16d
=8
*M4/8
8.c
16d
8.f
16d}
=9
{8c
16d
16f
16d
16c
8B-
=10
2c}
==
!!!AGN: Xiaodiao, YÅge, Eiei diao
!!!AMT: irregular
!!!AIN: vox
!!!EED: Helmut Schaffrath
!!!EEV: 1.0
*-
